outputs/icons/general/vacation_round.svg

<svg xmlns="http://www.w3.org/2000/svg" width="1200" height="1200" fill="none"><path fill="#000" d="M1059.225 439.466a15.39 15.39 0 0 1-13 8l-106.5 1.999a14.4 14.4 0 0 1-10.5-4.499l-41.5-39.5-11 47.999a15.794 15.794 0 0 1-11.5 11.501l-99.5 18.1c91.5 14.999 262 72.499 262.5 296.999 0 2.82-.8 5.585-2.305 7.975a15 15 0 0 1-6.195 5.525 15.5 15.5 0 0 1-8.205 1.485 15.5 15.5 0 0 1-7.795-2.985l-158.5-123a20 20 0 0 1-5-7.5l-27-81.5-36.5 53.5a14.9 14.9 0 0 1-4.55 4.38 15 15 0 0 1-5.95 2.12 15.9 15.9 0 0 1-6.41-.76 15.9 15.9 0 0 1-5.59-3.24l-93.5-83.5-6.155 1.55C666.91 567.905 700 623.655 700 825c0 54.215-1.2 97.875-3.075 133 110.61 18.87 192.13 69.14 202.055 129.55 1.12 6.815-4.575 12.45-11.48 12.45h-575c-6.904 0-12.601-5.635-11.481-12.45 11.483-69.89 118.799-126.205 256.111-136.03C567.445 912.275 575 868.64 575 825V574.16l-5.575 1.405-129.497 91a15 15 0 0 1-9.423 2.7 15.02 15.02 0 0 1-9.078-3.7l-32.999-29.5-6 94a15 15 0 0 1-1.797 6.155 15 15 0 0 1-4.203 4.845l-106.5 80.5a16.15 16.15 0 0 1-7.252 2.865c-2.615.35-5.275.055-7.748-.865a15.64 15.64 0 0 1-9.001-12c-13.499-107 29.501-308.5 268.998-319.5l-113.998-46.999a14.548 14.548 0 0 1-8.999-16.5l12.999-68.5-76.999 49.499a14.06 14.06 0 0 1-11 2.501l-155-31.501a13.8 13.8 0 0 1-7.625-3.875 13.8 13.8 0 0 1-3.875-7.625 15 15 0 0 1 5.5-15.499c212-156.001 353.997-45.5 440.497 76.999-33.5-120-15.5-256.499 151.5-280.499a15.84 15.84 0 0 1 13.5 5.5 13.08 13.08 0 0 1 2.5 13.999c-6.5 20.5-17.5 52.5-30.5 88.501l-52.5 8.999 41.5 23a922.7 922.7 0 0 1-65.5 148.5c107.5-134.5 298-165.5 401.5-14.499a14.48 14.48 0 0 1 .8 15.4"/></svg>

<svg width="1200" height="1200" viewBox="0 0 1200 1200" fill="none" xmlns="http://www.w3.org/2000/svg"><path d="M1059.225 439.466C1057.94 441.814 1056.07 443.787 1053.79 445.19C1051.51 446.593 1048.905 447.377 1046.225 447.466L939.725 449.465C937.765 449.472 935.82 449.075 934.01 448.301C932.205 447.527 930.58 446.392 929.225 444.966L887.725 405.466L876.725 453.465C876.035 456.245 874.595 458.783 872.57 460.809C870.545 462.835 868.005 464.272 865.225 464.966L765.725 483.066C857.225 498.065 1027.725 555.565 1028.225 780.065C1028.225 782.885 1027.425 785.65 1025.92 788.04C1024.415 790.425 1022.27 792.345 1019.725 793.565C1017.18 794.8 1014.34 795.315 1011.52 795.05C1008.695 794.785 1006 793.755 1003.725 792.065L845.225 669.065C843.01 666.98 841.3 664.415 840.225 661.565L813.225 580.065L776.725 633.565C775.54 635.33 773.99 636.825 772.175 637.945C770.365 639.065 768.34 639.79 766.225 640.065C764.06 640.25 761.88 639.995 759.815 639.305C757.75 638.62 755.85 637.515 754.225 636.065L660.725 552.565L654.57 554.115C666.91 567.905 700 623.655 700 825C700 879.215 698.8 922.875 696.925 958C807.535 976.87 889.055 1027.14 898.98 1087.55C900.1 1094.365 894.405 1100 887.5 1100H312.5C305.596 1100 299.899 1094.365 301.019 1087.55C312.502 1017.66 419.818 961.345 557.13 951.52C567.445 912.275 575 868.64 575 825V574.16L569.425 575.565L439.928 666.565C437.177 668.495 433.859 669.445 430.505 669.265C427.15 669.08 423.954 667.78 421.427 665.565L388.428 636.065L382.428 730.065C382.28 732.225 381.666 734.325 380.631 736.22C379.596 738.12 378.161 739.775 376.428 741.065L269.928 821.565C267.781 823.1 265.291 824.08 262.676 824.43C260.061 824.78 257.401 824.485 254.928 823.565C252.542 822.48 250.468 820.81 248.896 818.715C247.323 816.615 246.303 814.16 245.927 811.565C232.428 704.565 275.428 503.065 514.925 492.065L400.927 445.066C397.719 443.823 395.053 441.484 393.405 438.464C391.758 435.443 391.234 431.936 391.928 428.566L404.927 360.066L327.928 409.565C326.366 410.719 324.582 411.538 322.689 411.968C320.796 412.398 318.834 412.432 316.928 412.066L161.928 380.565C159.04 380.113 156.37 378.756 154.303 376.69C152.237 374.623 150.88 371.953 150.428 369.065C149.735 366.227 149.886 363.248 150.863 360.494C151.84 357.741 153.601 355.332 155.928 353.566C367.928 197.565 509.925 308.066 596.425 430.565C562.925 310.565 580.925 174.066 747.925 150.066C750.455 149.835 753 150.215 755.345 151.171C757.695 152.129 759.78 153.635 761.425 155.566C763.15 157.411 764.3 159.713 764.745 162.197C765.185 164.68 764.905 167.239 763.925 169.565C757.425 190.065 746.425 222.065 733.425 258.066L680.925 267.065L722.425 290.065C704.995 341.392 683.08 391.084 656.925 438.565C764.425 304.065 954.925 273.065 1058.425 424.066C1059.995 426.298 1060.905 428.927 1061.045 431.651C1061.185 434.375 1060.555 437.083 1059.225 439.466Z" fill="#1D1E23"/></svg>
